src/apps/symbolic/setroubleshoot_icon-symbolic.svg

<svg width="16" height="16" version="1.1" xmlns="http://www.w3.org/2000/svg">
 <path d="m9 1v5h1v4l3-5h-1l1.5-4zm-4 1v1h2v1h-1.5l-2.5 2.5v1.5h-1v-2h-1v6h1v-2h1v1c0 1 1 1 1 1h2l1 1h5s1 0 1-1v-2h2v2h1v-7h-1v4h-3v3h-4l-1-1h-3v-4l2-2h2v-3z" fill="#363636"/>
</svg>

<svg xmlns="http://www.w3.org/2000/svg" width="16" height="16">
    <path fill="#050505" fill-opacity=".7" d="M9 1v5h1v4l3-5h-1l1.5-4zM5 2v1h2v1H5.5L3 6.5V8H2V6H1v6h1v-2h1v1c0 1 1 1 1 1h2l1 1h5s1 0 1-1v-2h2v2h1V5h-1v4h-3v3H8l-1-1H4V7l2-2h2V2z"/>
</svg>
